app/dist/common/images/mesa-laboratories.svg

<svg height="18" viewBox="0 0 18 18" width="18" xmlns="http://www.w3.org/2000/svg"><path d="m0 0h18v18h-18z" fill="#f0f3fa"/><path d="m14 12.89c0 .62-.44 1.11-1.07 1.11h-7.82a1.1 1.1 0 0 1 -1.11-1.11v-7.87c.04-.62.53-1.06 1.11-1.02h7.82c.58-.04 1.03.4 1.07.98zm-2-4.79.94 2.67c.08.2.08.46 0 .82-.08.2-.24.41-.4.41h-5.54l1.5-4h3.42c.02 0 .03.02.04.05zm-4.21-1.1h4.21l-.29-.8c-.09-.2-.26-.2-.43-.2h-3.88c-.17 0-.35 0-.43.26l-1.9 4.54c-.1.26-.1.52 0 .73.08.2.26.47.43.47h.26z" fill="#4396a7" fill-rule="evenodd"/></svg>

<!-- by TradingView --><svg width="18" height="18" viewBox="0 0 18 18" xmlns="http://www.w3.org/2000/svg"><path fill="#F0F3FA" d="M0 0h18v18H0z"/><path fill-rule="evenodd" d="M14 12.89c0 .62-.44 1.11-1.07 1.11H5.11A1.1 1.1 0 0 1 4 12.89V5.02c.04-.62.53-1.06 1.11-1.02h7.82c.58-.04 1.03.4 1.07.98v7.91ZM12 8.1l.94 2.67c.08.2.08.46 0 .82-.08.2-.24.41-.4.41H7l1.5-4h3.42c.02 0 .03.02.04.05l.04.05ZM7.79 7H12l-.29-.8c-.09-.2-.26-.2-.43-.2H7.4c-.17 0-.35 0-.43.26L5.07 10.8c-.1.26-.1.52 0 .73.08.2.26.47.43.47h.26l2.03-5Z" fill="#4396A7"/></svg>
